svg/u1f41e.svg

<svg viewBox="0 0 128 128" xmlns="http://www.w3.org/2000/svg">
  <defs/>
  <path d="M104.4,64.28 C104.4,64.28 112.52,64.23 112.71,65.83 C112.84,66.89 110.88,87.79 110.88,87.79 C110.88,87.79 117.06,90.93 118.34,91.73 C119.84,92.67 120.59,93.98 120.03,95.11 C119.47,96.24 118.34,96.52 116.79,95.81 C115.24,95.11 105.39,92.01 104.96,91.02 C104.53,90.03 105.1,73.42 105.1,73.42 L104.4,64.28 Z" fill="#696E72"/>
  <path d="M92.67,41.8 C92.67,41.8 95.81,38.43 96.94,38.7 C98.49,39.08 102.9,45.6 104.03,47.57 C105.16,49.54 107.83,54.19 107.83,54.19 C107.83,54.19 115.15,52.78 116.98,52.5 C118.81,52.22 120.78,52.92 120.92,54.75 C121.06,56.58 118.25,57.42 115.85,57.85 C113.46,58.27 106.28,59.96 105.57,59.4 C104.87,58.83 92.67,41.8 92.67,41.8 Z" fill="#696E72"/>
  <path d="M33.02,85.39 L34.99,91.58 L32.6,94.68 C32.6,94.68 41.75,106.65 41.61,108.05 C41.47,109.46 31.9,119.31 31.05,120.02 C30.21,120.72 28.07,121.69 27.25,120.44 C26.17,118.8 27.53,116.92 28.66,115.65 C29.79,114.38 35.42,108.05 35.42,108.05 C35.42,108.05 26.32,97.32 25.85,94.25 C25.56,92.43 33.02,85.39 33.02,85.39 Z" fill="#696E72"/>
  <path d="M31.05,58.5 C31.05,58.5 24.62,56.15 22.88,57.23 C20.89,58.46 21.8,82.62 21.8,82.62 C21.8,82.62 13.73,87.64 12.74,88.2 C11.75,88.76 11.05,90.03 11.75,91.16 C12.45,92.29 14.14,92 16.25,91.16 C18.36,90.32 24.9,87.64 25.96,86.66 C27.74,85.02 27.04,65.64 27.04,65.64 L30.18,64.98 L31.05,58.5 Z" fill="#696E72"/>
  <path d="M57.1,49.07 L82.3,32.6 C82.3,32.6 87.65,19.93 87.65,18.8 C87.65,17.67 80.05,9.37 80.05,9.37 C80.05,9.37 83,6.13 81.31,5.01 C79.62,3.88 74.65,9.14 74.83,10.64 C74.94,11.48 82.01,19.93 82.01,19.93 L76.52,30.91 C76.52,30.91 69.9,30.49 68.92,29.78 C67.94,29.07 68.31,26.17 66.1,24.85 C64.36,23.81 62.44,23.58 62.44,23.58 C62.44,23.58 62.02,20.91 63.43,18.79 C64.84,16.67 70.63,10.52 69.25,7.81 C67.65,4.67 65.19,5.85 64.7,7.34 C64.23,8.75 65.83,10.34 65.83,10.34 C65.83,10.34 61.04,15.83 59.92,18.36 C58.8,20.89 59.22,24.27 59.22,24.27 C59.22,24.27 52.46,22.82 48.66,23.94 C44.86,25.07 41.2,30.46 41.2,30.46 C41.2,30.46 38.1,27.08 36.13,26.1 C34.16,25.12 32.75,25.68 29.79,24.27 C26.83,22.86 26.13,21.74 26.13,21.74 C26.13,21.74 26.42,20.38 25.85,19.35 C25.28,18.31 23.5,17.85 22.24,18.65 C21.24,19.28 21.14,21.06 21.64,22.12 C22.2,23.3 23.75,23.44 23.75,23.44 C23.75,23.44 25.81,25.97 28.77,26.96 C31.91,28.01 32.62,27.8 34.73,28.65 C36.84,29.5 37.83,31.75 37.83,31.75 C37.83,31.75 36.42,33.58 36.28,35.55 C36.15,37.42 36.7,43.15 36.7,43.15 L31.49,49.06 C31.49,49.06 23.14,44.46 22.76,43.66 C22.38,42.86 23.98,31.51 22.62,30.19 C20.97,28.6 14.45,24.42 13.89,27.09 C13.33,29.76 18.68,32.16 18.68,32.16 C18.68,32.16 17.23,44.31 17.98,46.1 C18.73,47.88 30.93,55.81 30.93,55.81 L57.1,49.07 Z" fill="#696E72"/>
  <path d="M57.52,42.74 L29.92,52.87 C29.92,52.87 24.71,65.68 30.76,85.25 C36.17,102.73 56.91,120.54 82.85,112.98 C109.74,105.14 109.88,63.28 101.43,49.63 C93.32,36.51 82.29,32.6 82.29,32.6 L57.52,42.74 Z" fill="#FE1D1E"/>
  <path d="M60.122,23.365 C62.009,23.533 63.43,24.874 63.298,26.359 C63.165,27.845 61.527,28.912 59.641,28.743 C57.754,28.574 56.332,27.233 56.465,25.748 C56.598,24.263 58.235,23.196 60.122,23.365 Z" fill="#2F2F2F"/>
  <path d="M43.972,30.3 C44.857,31.501 44.337,33.385 42.812,34.508 C41.286,35.632 39.333,35.569 38.449,34.368 C37.564,33.168 38.084,31.284 39.609,30.16 C41.135,29.037 43.088,29.1 43.972,30.3 Z" fill="#2F2F2F"/>
  <path d="M59.91,53.25 C59.91,53.25 70.8,80.05 71.83,83.1 C72.85,86.11 80.89,109.9 81.31,111.16 C81.73,112.42 81.97,113.41 83.37,112.94 C84.92,112.42 84.26,111.02 83.84,109.89 C83.42,108.76 76.6,85.15 75.58,82.02 C73.37,75.26 64.41,50.63 64.41,50.63 L59.91,53.25 Z" fill="#D62F34"/>
  <path d="M53.29,31.33 C44.98,34.15 40.2,40.34 39.07,42.45 C37.94,44.56 34.57,44 34.57,44 C34.57,44 32.46,45.74 31.1,48.22 C30.04,50.15 29.79,53.01 29.79,53.01 C29.79,53.01 40.77,51.84 46.68,52.4 C52.59,52.96 63.15,54.84 63.15,54.84 C63.15,54.84 69.11,46.3 73.43,41.89 C76.15,39.11 83.38,32.97 83.38,32.97 C83.38,32.97 80.52,30.86 78.41,30.44 C76.74,30.11 73.11,29.64 71.37,30.63 C71.22,30.63 61.9,28.42 53.29,31.33 Z" fill="#2F2F2F"/>
  <path d="M40.11,45.83 C42.33,43.54 39.45,39.07 37.2,39.17 C34.95,39.26 35.04,40.77 34.48,42.08 C33.92,43.39 32.97,43.92 33.17,45.36 C33.35,46.77 36.73,49.31 40.11,45.83 Z" fill="#FFEBC1"/>
  <path d="M67.14,33.91 C71.08,36.35 73.8,32.6 73.99,30.72 C74.18,28.84 71.08,28.56 70.14,28 C69.2,27.44 67.7,25.37 66.29,27.53 C64.89,29.69 64.9,32.53 67.14,33.91 Z" fill="#FFEBC1"/>
  <path d="M64.71,73.18 A9.58 9.32 0 1 1 45.55,73.18 A9.58 9.32 0 1 1 64.71,73.18 Z" fill="#2F2F2F"/>
  <path d="M90.15,65.29 A8.68 8.75 0 1 1 72.79,65.29 A8.68 8.75 0 1 1 90.15,65.29 Z" fill="#2F2F2F"/>
  <path d="M96.527,47.498 C98.704,50.686 98.158,54.849 95.308,56.795 C92.457,58.742 88.382,57.736 86.204,54.548 C84.027,51.36 84.573,47.198 87.423,45.251 C90.274,43.304 94.349,44.31 96.527,47.498 Z" fill="#2F2F2F"/>
  <path d="M42.29,67.71 A6.39 7.19 0 1 1 29.51,67.71 A6.39 7.19 0 1 1 42.29,67.71 Z" fill="#2F2F2F"/>
  <path d="M67.709,93.583 C68.17,98.16 65.02,102.226 60.674,102.664 C56.327,103.102 52.429,99.746 51.968,95.168 C51.507,90.591 54.657,86.525 59.004,86.087 C63.351,85.649 67.248,89.005 67.709,93.583 Z" fill="#2F2F2F"/>
  <path d="M89.414,76.228 C93.563,76.402 96.776,80.131 96.59,84.556 C96.404,88.982 92.89,92.428 88.74,92.253 C84.591,92.079 81.378,88.35 81.564,83.925 C81.75,79.499 85.264,76.053 89.414,76.228 Z" fill="#2F2F2F"/>
</svg>

<svg viewBox="0 0 128 128" xmlns="http://www.w3.org/2000/svg">
  <path d="M104.4,64.28c0,0,8.12-0.05,8.31,1.55c0.13,1.06-1.83,21.96-1.83,21.96s6.18,3.14,7.46,3.94 c1.5,0.94,2.25,2.25,1.69,3.38c-0.56,1.13-1.69,1.41-3.24,0.7c-1.55-0.7-11.4-3.8-11.83-4.79s0.14-17.6,0.14-17.6L104.4,64.28z" fill="#696E72"/>
  <path d="M92.67,41.8c0,0,3.14-3.37,4.27-3.1c1.55,0.38,5.96,6.9,7.09,8.87c1.13,1.97,3.8,6.62,3.8,6.62 s7.32-1.41,9.15-1.69s3.8,0.42,3.94,2.25c0.14,1.83-2.67,2.67-5.07,3.1c-2.39,0.42-9.57,2.11-10.28,1.55 C104.87,58.83,92.67,41.8,92.67,41.8z" fill="#696E72"/>
  <path d="M33.02,85.39l1.97,6.19l-2.39,3.1c0,0,9.15,11.97,9.01,13.37c-0.14,1.41-9.71,11.26-10.56,11.97 c-0.84,0.7-2.98,1.67-3.8,0.42c-1.08-1.64,0.28-3.52,1.41-4.79c1.13-1.27,6.76-7.6,6.76-7.6s-9.1-10.73-9.57-13.8 C25.56,92.43,33.02,85.39,33.02,85.39z" fill="#696E72"/>
  <path d="M31.05,58.5c0,0-6.43-2.35-8.17-1.27c-1.99,1.23-1.08,25.39-1.08,25.39s-8.07,5.02-9.06,5.58 s-1.69,1.83-0.99,2.96s2.39,0.84,4.5,0s8.65-3.52,9.71-4.5c1.78-1.64,1.08-21.02,1.08-21.02l3.14-0.66L31.05,58.5z" fill="#696E72"/>
  <path d="M57.1,49.07l25.2-16.47c0,0,5.35-12.67,5.35-13.8c0-1.13-7.6-9.43-7.6-9.43S83,6.13,81.31,5.01 c-1.69-1.13-6.66,4.13-6.48,5.63c0.11,0.84,7.18,9.29,7.18,9.29l-5.49,10.98c0,0-6.62-0.42-7.6-1.13s-0.61-3.61-2.82-4.93 c-1.74-1.04-3.66-1.27-3.66-1.27s-0.42-2.67,0.99-4.79s7.2-8.27,5.82-10.98c-1.6-3.14-4.06-1.96-4.55-0.47c-0.47,1.41,1.13,3,1.13,3 s-4.79,5.49-5.91,8.02s-0.7,5.91-0.7,5.91s-6.76-1.45-10.56-0.33c-3.8,1.13-7.46,6.52-7.46,6.52s-3.1-3.38-5.07-4.36 s-3.38-0.42-6.34-1.83s-3.66-2.53-3.66-2.53s0.29-1.36-0.28-2.39c-0.57-1.04-2.35-1.5-3.61-0.7c-1,0.63-1.1,2.41-0.6,3.47 c0.56,1.18,2.11,1.32,2.11,1.32s2.06,2.53,5.02,3.52c3.14,1.05,3.85,0.84,5.96,1.69s3.1,3.1,3.1,3.1s-1.41,1.83-1.55,3.8 c-0.13,1.87,0.42,7.6,0.42,7.6l-5.21,5.91c0,0-8.35-4.6-8.73-5.4c-0.38-0.8,1.22-12.15-0.14-13.47c-1.65-1.59-8.17-5.77-8.73-3.1 c-0.56,2.67,4.79,5.07,4.79,5.07s-1.45,12.15-0.7,13.94c0.75,1.78,12.95,9.71,12.95,9.71L57.1,49.07z" fill="#696E72"/>
  <path d="M57.52,42.74L29.92,52.87c0,0-5.21,12.81,0.84,32.38c5.41,17.48,26.15,35.29,52.09,27.73 c26.89-7.84,27.03-49.7,18.58-63.35C93.32,36.51,82.29,32.6,82.29,32.6L57.52,42.74z" fill="#FE1D1E"/>
  <ellipse cx="59.88" cy="26.05" fill="#2F2F2F" rx="2.7" ry="3.43" transform="matrix(0.0891 -0.996 0.996 0.0891 28.6002 83.3733)"/>
  <ellipse cx="41.21" cy="32.34" fill="#2F2F2F" rx="3.43" ry="2.7" transform="matrix(0.8052 -0.593 0.593 0.8052 -11.1495 30.7316)"/>
  <path d="M59.91,53.25c0,0,10.89,26.8,11.92,29.85c1.02,3.01,9.06,26.8,9.48,28.06s0.66,2.25,2.06,1.78 c1.55-0.52,0.89-1.92,0.47-3.05c-0.42-1.13-7.24-24.74-8.26-27.87c-2.21-6.76-11.17-31.39-11.17-31.39L59.91,53.25z" fill="#D62F34"/>
  <path d="M53.29,31.33c-8.31,2.82-13.09,9.01-14.22,11.12c-1.13,2.11-4.5,1.55-4.5,1.55s-2.11,1.74-3.47,4.22 c-1.06,1.93-1.31,4.79-1.31,4.79s10.98-1.17,16.89-0.61s16.47,2.44,16.47,2.44s5.96-8.54,10.28-12.95c2.72-2.78,9.95-8.92,9.95-8.92 s-2.86-2.11-4.97-2.53c-1.67-0.33-5.3-0.8-7.04,0.19C71.22,30.63,61.9,28.42,53.29,31.33z" fill="#2F2F2F"/>
  <path d="M40.11,45.83c2.22-2.29-0.66-6.76-2.91-6.66c-2.25,0.09-2.16,1.6-2.72,2.91 c-0.56,1.31-1.51,1.84-1.31,3.28C33.35,46.77,36.73,49.31,40.11,45.83z" fill="#FFEBC1"/>
  <path d="M67.14,33.91c3.94,2.44,6.66-1.31,6.85-3.19s-2.91-2.16-3.85-2.72c-0.94-0.56-2.44-2.63-3.85-0.47 C64.89,29.69,64.9,32.53,67.14,33.91z" fill="#FFEBC1"/>
  <ellipse cx="55.13" cy="73.18" fill="#2F2F2F" rx="9.58" ry="9.32"/>
  <ellipse cx="81.47" cy="65.29" fill="#2F2F2F" rx="8.68" ry="8.75"/>
  <ellipse cx="91.36" cy="51.02" fill="#2F2F2F" rx="6.25" ry="6.99" transform="matrix(0.8258 -0.564 0.564 0.8258 -12.8549 60.4178)"/>
  <ellipse cx="35.9" cy="67.71" fill="#2F2F2F" rx="6.39" ry="7.19"/>
  <ellipse cx="59.84" cy="94.37" fill="#2F2F2F" rx="7.91" ry="8.33" transform="matrix(0.995 -0.1002 0.1002 0.995 -9.1578 6.4733)"/>
  <ellipse cx="89.07" cy="84.24" fill="#2F2F2F" rx="8.02" ry="7.52" transform="matrix(0.042 -0.9991 0.9991 0.042 1.1719 169.6922)"/>
</svg>
